Newaita-dark/apps/22/input-tablet.svg

<svg height="22" viewBox="0 0 22 22" width="22" xmlns="http://www.w3.org/2000/svg" xmlns:xlink="http://www.w3.org/1999/xlink"><linearGradient id="a" gradientTransform="matrix(.0687566 0 0 .0429729 -6.549069 8.329572)" gradientUnits="userSpaceOnUse" x1="254" x2="254" y1="233.5" y2="254.666672"><stop offset="0" stop-opacity=".27451"/><stop offset="1" stop-opacity="0"/></linearGradient><linearGradient id="b"><stop offset="0" stop-opacity=".313726"/><stop offset=".222222" stop-opacity=".27451"/><stop offset="1" stop-opacity="0"/></linearGradient><radialGradient id="c" cx="450.908936" cy="189.579361" gradientTransform="matrix(.00000012 -.0537161 -.0966889 -.00000007 36.294616 42.812198)" gradientUnits="userSpaceOnUse" r="21.166656" xlink:href="#b"/><radialGradient id="d" cx="450.908936" cy="189.579361" gradientTransform="matrix(-.00000012 .0537161 .0966889 .00000007 -14.46441 -6.084735)" gradientUnits="userSpaceOnUse" r="21.166656" xlink:href="#b"/><radialGradient id="e" cx="450.908936" cy="189.579361" gradientTransform="matrix(-.00000012 -.0537161 .0966889 -.00000007 -14.46441 42.812198)" gradientUnits="userSpaceOnUse" r="21.166656" xlink:href="#b"/><radialGradient id="f" cx="450.908936" cy="189.579361" gradientTransform="matrix(.00000012 .0537161 -.0966889 .00000007 36.294615 -6.084735)" gradientUnits="userSpaceOnUse" r="21.166656" xlink:href="#b"/><linearGradient id="g" gradientUnits="userSpaceOnUse" x1="10.9151166" x2="10.9151166" y1="18.36374187081" y2="2.90066025"><stop offset="0" stop-color="#616161"/><stop offset="1" stop-color="#757575"/></linearGradient><linearGradient id="h" gradientTransform="matrix(.944444 0 0 1.071429 3.527778 -13.654765)" gradientUnits="userSpaceOnUse" x1="254" x2="254" y1="191.166672" y2="-105.166656"><stop offset="0" stop-color="#424242"/><stop offset="1" stop-color="#616161"/></linearGradient><path d="m3.636719 18.363281h14.554687v.910157h-14.554687zm0 0" fill="url(#a)"/><path d="m18.191406 18.363281h1.820313v-.910156h-1.820313zm0 0" fill="url(#c)"/><path d="m3.636719 18.363281h-1.816407v.910157h1.816407zm0 0" fill="url(#d)"/><path d="m3.636719 18.363281h-1.816407v-.910156h1.816407zm0 0" fill="url(#e)"/><path d="m18.191406 18.363281h1.820313v.910157h-1.820313zm0 0" fill="url(#f)"/><path d="m2.730469 2.902344h16.371093c.503907 0 .910157.40625.910157.90625v13.644531c0 .503906-.40625.910156-.910157.910156h-16.371093c-.503907 0-.910157-.40625-.910157-.910156v-13.644531c0-.5.40625-.90625.910157-.90625zm0 0" fill="url(#g)"/><path d="m83.446577-126.3721h319.878544c11.08985 0 19.99809 10.180846 19.99809 22.725103v272.155828c0 12.544257-8.90824 22.634202-19.99809 22.634202h-319.878544c-10.99895 0-19.90719-10.089945-19.90719-22.634202v-272.155828c0-12.544257 8.90824-22.725103 19.90719-22.725103zm0 0" fill="url(#h)" stroke="#212121" stroke-linecap="round" stroke-linejoin="round" stroke-width="3.017804" transform="matrix(.0429729 0 0 .0429729 0 9.239163)"/><path d="m444.503007 21.795569c5.817626 0 10.544447 4.36322 10.544447 9.635443v1.908909c0 5.363124-4.726821 9.635444-10.544447 9.635444-5.817627 0-10.544448-4.27232-10.544448-9.635444v-1.908909c0-5.272223 4.726821-9.635443 10.544448-9.635443zm0 0" fill="none" stroke="#212121" stroke-linecap="round" stroke-linejoin="round" stroke-width="3" transform="matrix(.0429729 0 0 .0429729 0 9.239163)"/><path d="m2.730469 2.902344c-.503907 0-.910157.402344-.910157.90625v.230468c0-.503906.40625-.910156.910157-.910156h16.371093c.503907 0 .910157.40625.910157.910156v-.230468c0-.503906-.40625-.90625-.910157-.90625zm0 0" fill="#fff" fill-opacity=".392157"/><path d="m2.730469 18.363281c-.503907 0-.910157-.40625-.910157-.910156v-.226563c0 .503907.40625.910157.910157.910157h16.371093c.503907 0 .910157-.40625.910157-.910157v.226563c0 .503906-.40625.910156-.910157.910156zm0 0" fill-opacity=".235294"/><path d="m2.730469 2.835938c-.539063 0-.976563.4375-.976563.972656v13.644531c0 .539063.4375.976563.976563.976563h16.371093c.539063 0 .972657-.4375.972657-.976563v-13.644531c0-.535156-.433594-.972656-.972657-.972656zm0 .128906h16.371093c.46875 0 .84375.375.84375.84375v13.644531c0 .46875-.375.847656-.84375.847656h-16.371093c-.472657 0-.847657-.378906-.847657-.847656v-13.644531c0-.46875.375-.84375.847657-.84375zm0 0" fill="#212121"/><g fill="none" stroke="#212121" stroke-linecap="round" stroke-linejoin="round" stroke-width="3" transform="matrix(.0429729 0 0 .0429729 0 9.239163)"><path d="m444.503007-31.10847c5.817626 0 10.544447 4.36322 10.544447 9.635444v1.908908c0 5.363124-4.726821 9.635444-10.544447 9.635444-5.817627 0-10.544448-4.27232-10.544448-9.635444v-1.908908c0-5.272224 4.726821-9.635444 10.544448-9.635444zm0 0"/><path d="m444.503007 74.790508c5.817626 0 10.544447 4.272319 10.544447 9.544543v1.999809c0 5.272224-4.726821 9.544543-10.544447 9.544543-5.817627 0-10.544448-4.272319-10.544448-9.544543v-1.999809c0-5.272224 4.726821-9.544543 10.544448-9.544543zm0 0"/></g></svg>

<?xml version="1.0" encoding="UTF-8"?>
<svg xmlns="http://www.w3.org/2000/svg" xmlns:xlink="http://www.w3.org/1999/xlink" width="22px" height="22px" viewBox="0 0 22 22" version="1.1">
<defs>
<linearGradient id="linear0" gradientUnits="userSpaceOnUse" x1="254" y1="233.5" x2="254" y2="254.666672" gradientTransform="matrix(0.0687566,0,0,0.0429729,-6.549069,8.329572)">
<stop offset="0" style="stop-color:rgb(0%,0%,0%);stop-opacity:0.27451;"/>
<stop offset="1" style="stop-color:rgb(0%,0%,0%);stop-opacity:0;"/>
</linearGradient>
<radialGradient id="radial0" gradientUnits="userSpaceOnUse" cx="450.908936" cy="189.579361" fx="450.908936" fy="189.579361" r="21.166656" gradientTransform="matrix(0.000000119742,-0.0537161,-0.0966889,-0.0000000698078,36.294616,42.812198)">
<stop offset="0" style="stop-color:rgb(0%,0%,0%);stop-opacity:0.313726;"/>
<stop offset="0.222222" style="stop-color:rgb(0%,0%,0%);stop-opacity:0.27451;"/>
<stop offset="1" style="stop-color:rgb(0%,0%,0%);stop-opacity:0;"/>
</radialGradient>
<radialGradient id="radial1" gradientUnits="userSpaceOnUse" cx="450.908936" cy="189.579361" fx="450.908936" fy="189.579361" r="21.166656" gradientTransform="matrix(-0.000000119742,0.0537161,0.0966889,0.0000000698078,-14.46441,-6.084735)">
<stop offset="0" style="stop-color:rgb(0%,0%,0%);stop-opacity:0.313726;"/>
<stop offset="0.222222" style="stop-color:rgb(0%,0%,0%);stop-opacity:0.27451;"/>
<stop offset="1" style="stop-color:rgb(0%,0%,0%);stop-opacity:0;"/>
</radialGradient>
<radialGradient id="radial2" gradientUnits="userSpaceOnUse" cx="450.908936" cy="189.579361" fx="450.908936" fy="189.579361" r="21.166656" gradientTransform="matrix(-0.000000119742,-0.0537161,0.0966889,-0.0000000698078,-14.46441,42.812198)">
<stop offset="0" style="stop-color:rgb(0%,0%,0%);stop-opacity:0.313726;"/>
<stop offset="0.222222" style="stop-color:rgb(0%,0%,0%);stop-opacity:0.27451;"/>
<stop offset="1" style="stop-color:rgb(0%,0%,0%);stop-opacity:0;"/>
</radialGradient>
<radialGradient id="radial3" gradientUnits="userSpaceOnUse" cx="450.908936" cy="189.579361" fx="450.908936" fy="189.579361" r="21.166656" gradientTransform="matrix(0.000000119742,0.0537161,-0.0966889,0.0000000698078,36.294615,-6.084735)">
<stop offset="0" style="stop-color:rgb(0%,0%,0%);stop-opacity:0.313726;"/>
<stop offset="0.222222" style="stop-color:rgb(0%,0%,0%);stop-opacity:0.27451;"/>
<stop offset="1" style="stop-color:rgb(0%,0%,0%);stop-opacity:0;"/>
</radialGradient>
<linearGradient id="linear1" gradientUnits="userSpaceOnUse" x1="254" y1="212.333328" x2="254" y2="-147.5" gradientTransform="matrix(0.0429729,0,0,0.0429729,0,9.239163)">
<stop offset="0" style="stop-color:rgb(38.039216%,38.039216%,38.039216%);stop-opacity:1;"/>
<stop offset="1" style="stop-color:rgb(45.882353%,45.882353%,45.882353%);stop-opacity:1;"/>
</linearGradient>
<linearGradient id="linear2" gradientUnits="userSpaceOnUse" x1="254" y1="191.166672" x2="254" y2="-105.166656" gradientTransform="matrix(0.944444,0,0,1.071429,3.527778,-13.654765)">
<stop offset="0" style="stop-color:rgb(25.882354%,25.882354%,25.882354%);stop-opacity:1;"/>
<stop offset="1" style="stop-color:rgb(38.039216%,38.039216%,38.039216%);stop-opacity:1;"/>
</linearGradient>
</defs>
<g id="surface1">
<path style=" stroke:none;fill-rule:nonzero;fill:url(#linear0);" d="M 3.636719 18.363281 L 18.191406 18.363281 L 18.191406 19.273438 L 3.636719 19.273438 Z M 3.636719 18.363281 "/>
<path style=" stroke:none;fill-rule:nonzero;fill:url(#radial0);" d="M 18.191406 18.363281 L 20.011719 18.363281 L 20.011719 17.453125 L 18.191406 17.453125 Z M 18.191406 18.363281 "/>
<path style=" stroke:none;fill-rule:nonzero;fill:url(#radial1);" d="M 3.636719 18.363281 L 1.820312 18.363281 L 1.820312 19.273438 L 3.636719 19.273438 Z M 3.636719 18.363281 "/>
<path style=" stroke:none;fill-rule:nonzero;fill:url(#radial2);" d="M 3.636719 18.363281 L 1.820312 18.363281 L 1.820312 17.453125 L 3.636719 17.453125 Z M 3.636719 18.363281 "/>
<path style=" stroke:none;fill-rule:nonzero;fill:url(#radial3);" d="M 18.191406 18.363281 L 20.011719 18.363281 L 20.011719 19.273438 L 18.191406 19.273438 Z M 18.191406 18.363281 "/>
<path style=" stroke:none;fill-rule:nonzero;fill:url(#linear1);" d="M 2.730469 2.902344 L 19.101562 2.902344 C 19.605469 2.902344 20.011719 3.308594 20.011719 3.808594 L 20.011719 17.453125 C 20.011719 17.957031 19.605469 18.363281 19.101562 18.363281 L 2.730469 18.363281 C 2.226562 18.363281 1.820312 17.957031 1.820312 17.453125 L 1.820312 3.808594 C 1.820312 3.308594 2.226562 2.902344 2.730469 2.902344 Z M 2.730469 2.902344 "/>
<path style="fill-rule:nonzero;fill:url(#linear2);stroke-width:3.017804;stroke-linecap:round;stroke-linejoin:round;stroke:rgb(12.941177%,12.941177%,12.941177%);stroke-opacity:1;stroke-miterlimit:4;" d="M 83.446577 -126.3721 L 403.325121 -126.3721 C 414.414971 -126.3721 423.323211 -116.191254 423.323211 -103.646997 L 423.323211 168.508831 C 423.323211 181.053088 414.414971 191.143033 403.325121 191.143033 L 83.446577 191.143033 C 72.447627 191.143033 63.539387 181.053088 63.539387 168.508831 L 63.539387 -103.646997 C 63.539387 -116.191254 72.447627 -126.3721 83.446577 -126.3721 Z M 83.446577 -126.3721 " transform="matrix(0.0429729,0,0,0.0429729,0,9.239163)"/>
<path style="fill:none;stroke-width:3;stroke-linecap:round;stroke-linejoin:round;stroke:rgb(12.941177%,12.941177%,12.941177%);stroke-opacity:1;stroke-miterlimit:4;" d="M 444.503007 21.795569 C 450.320633 21.795569 455.047454 26.158789 455.047454 31.431012 L 455.047454 33.339921 C 455.047454 38.703045 450.320633 42.975365 444.503007 42.975365 C 438.68538 42.975365 433.958559 38.703045 433.958559 33.339921 L 433.958559 31.431012 C 433.958559 26.158789 438.68538 21.795569 444.503007 21.795569 Z M 444.503007 21.795569 " transform="matrix(0.0429729,0,0,0.0429729,0,9.239163)"/>
<path style=" stroke:none;fill-rule:nonzero;fill:rgb(100%,100%,100%);fill-opacity:0.392157;" d="M 2.730469 2.902344 C 2.226562 2.902344 1.820312 3.304688 1.820312 3.808594 L 1.820312 4.039062 C 1.820312 3.535156 2.226562 3.128906 2.730469 3.128906 L 19.101562 3.128906 C 19.605469 3.128906 20.011719 3.535156 20.011719 4.039062 L 20.011719 3.808594 C 20.011719 3.304688 19.605469 2.902344 19.101562 2.902344 Z M 2.730469 2.902344 "/>
<path style=" stroke:none;fill-rule:nonzero;fill:rgb(0%,0%,0%);fill-opacity:0.235294;" d="M 2.730469 18.363281 C 2.226562 18.363281 1.820312 17.957031 1.820312 17.453125 L 1.820312 17.226562 C 1.820312 17.730469 2.226562 18.136719 2.730469 18.136719 L 19.101562 18.136719 C 19.605469 18.136719 20.011719 17.730469 20.011719 17.226562 L 20.011719 17.453125 C 20.011719 17.957031 19.605469 18.363281 19.101562 18.363281 Z M 2.730469 18.363281 "/>
<path style=" stroke:none;fill-rule:nonzero;fill:rgb(12.941177%,12.941177%,12.941177%);fill-opacity:1;" d="M 2.730469 2.835938 C 2.191406 2.835938 1.753906 3.273438 1.753906 3.808594 L 1.753906 17.453125 C 1.753906 17.992188 2.191406 18.429688 2.730469 18.429688 L 19.101562 18.429688 C 19.640625 18.429688 20.074219 17.992188 20.074219 17.453125 L 20.074219 3.808594 C 20.074219 3.273438 19.640625 2.835938 19.101562 2.835938 Z M 2.730469 2.964844 L 19.101562 2.964844 C 19.570312 2.964844 19.945312 3.339844 19.945312 3.808594 L 19.945312 17.453125 C 19.945312 17.921875 19.570312 18.300781 19.101562 18.300781 L 2.730469 18.300781 C 2.257812 18.300781 1.882812 17.921875 1.882812 17.453125 L 1.882812 3.808594 C 1.882812 3.339844 2.257812 2.964844 2.730469 2.964844 Z M 2.730469 2.964844 "/>
<path style="fill:none;stroke-width:3;stroke-linecap:round;stroke-linejoin:round;stroke:rgb(12.941177%,12.941177%,12.941177%);stroke-opacity:1;stroke-miterlimit:4;" d="M 444.503007 -31.10847 C 450.320633 -31.10847 455.047454 -26.74525 455.047454 -21.473026 L 455.047454 -19.564118 C 455.047454 -14.200994 450.320633 -9.928674 444.503007 -9.928674 C 438.68538 -9.928674 433.958559 -14.200994 433.958559 -19.564118 L 433.958559 -21.473026 C 433.958559 -26.74525 438.68538 -31.10847 444.503007 -31.10847 Z M 444.503007 -31.10847 " transform="matrix(0.0429729,0,0,0.0429729,0,9.239163)"/>
<path style="fill:none;stroke-width:3;stroke-linecap:round;stroke-linejoin:round;stroke:rgb(12.941177%,12.941177%,12.941177%);stroke-opacity:1;stroke-miterlimit:4;" d="M 444.503007 74.790508 C 450.320633 74.790508 455.047454 79.062827 455.047454 84.335051 L 455.047454 86.33486 C 455.047454 91.607084 450.320633 95.879403 444.503007 95.879403 C 438.68538 95.879403 433.958559 91.607084 433.958559 86.33486 L 433.958559 84.335051 C 433.958559 79.062827 438.68538 74.790508 444.503007 74.790508 Z M 444.503007 74.790508 " transform="matrix(0.0429729,0,0,0.0429729,0,9.239163)"/>
</g>
</svg>
